symbols/web/next_week/materialsymbolsrounded/next_week_wght500grad200fill1_48px.svg

<svg xmlns="http://www.w3.org/2000/svg" height="48" width="48"><path d="m22.25 34.05 5.45-5.5q.55-.55.55-1.325 0-.775-.55-1.375l-5.5-5.5q-.4-.4-.95-.4-.55 0-.9.4-.35.35-.35.875t.35.925l5.05 5.05-5 5.05q-.35.4-.35.9t.4.9q.3.4.85.4t.95-.4ZM7 43.05q-1.55 0-2.7-1.15-1.15-1.15-1.15-2.7V14.6q0-1.5 1.15-2.675Q5.45 10.75 7 10.75h8.75V6.5q0-1.55 1.15-2.7 1.15-1.15 2.7-1.15h8.8q1.55 0 2.7 1.15 1.15 1.15 1.15 2.7v4.25H41q1.55 0 2.7 1.175 1.15 1.175 1.15 2.675v24.6q0 1.55-1.15 2.7-1.15 1.15-2.7 1.15Zm12.6-32.3h8.8V6.5h-8.8Z"/></svg>

<svg xmlns="http://www.w3.org/2000/svg" height="48" width="48"><path d="M22.25 34.05 27.7 28.55Q28.25 28 28.25 27.225Q28.25 26.45 27.7 25.85L22.2 20.35Q21.8 19.95 21.25 19.95Q20.7 19.95 20.35 20.35Q20 20.7 20 21.225Q20 21.75 20.35 22.15L25.4 27.2L20.4 32.25Q20.05 32.65 20.05 33.15Q20.05 33.65 20.45 34.05Q20.75 34.45 21.3 34.45Q21.85 34.45 22.25 34.05ZM7 43.05Q5.45 43.05 4.3 41.9Q3.15 40.75 3.15 39.2V14.6Q3.15 13.1 4.3 11.925Q5.45 10.75 7 10.75H15.75V6.5Q15.75 4.95 16.9 3.8Q18.05 2.65 19.6 2.65H28.4Q29.95 2.65 31.1 3.8Q32.25 4.95 32.25 6.5V10.75H41Q42.55 10.75 43.7 11.925Q44.85 13.1 44.85 14.6V39.2Q44.85 40.75 43.7 41.9Q42.55 43.05 41 43.05ZM19.6 10.75H28.4V6.5Q28.4 6.5 28.4 6.5Q28.4 6.5 28.4 6.5H19.6Q19.6 6.5 19.6 6.5Q19.6 6.5 19.6 6.5Z"/></svg>
